docs/src/assets/logo.svg

<svg width="512" height="512" fill="none" xmlns="http://www.w3.org/2000/svg"><path fill-rule="evenodd" clip-rule="evenodd" d="m162.692 67-56.842 81.966h68.28v209.858h71.23c13.255 0 24 10.746 24 24 0 13.255-10.745 24-24 24h-85.23c-18.778 0-34-15.222-34-34V196.966H79.104c-27.438 0-43.575-30.828-27.939-53.375l76.26-109.966A34 34 0 0 1 155.364 19h137.568c64.177 0 123.421 67.39 123.421 153.966 0 47.926-17.445 80.247-36.146 100.618-6.349 6.916-11.404 11.195-16.61 15.149l73.394 155.776C447.617 467.06 431.164 493 406.234 493h-98.992c-13.255 0-24-10.745-24-24s10.745-24 24-24h76.92l-84.094-178.487 23.638-9.299.003-.001c.134-.059.458-.205.946-.445a53.615 53.615 0 0 0 4.641-2.614c4.11-2.57 9.806-6.772 15.551-13.03 11.126-12.12 23.506-33.05 23.506-68.158 0-68.66-45.599-105.966-75.421-105.966h-130.24Z" fill="#DB2777"/></svg>

<svg width="512" height="512" viewBox="0 0 512 512" fill="none" xmlns="http://www.w3.org/2000/svg">
<path fill-rule="evenodd" clip-rule="evenodd" d="M162.692 67L105.85 148.966H174.13V358.824H245.36C258.615 358.824 269.36 369.57 269.36 382.824C269.36 396.079 258.615 406.824 245.36 406.824H160.13C141.352 406.824 126.13 391.602 126.13 372.824V196.966H79.1042C51.6655 196.966 35.5286 166.138 51.1651 143.591L127.425 33.6246C133.777 24.4644 144.217 19 155.364 19L292.932 19C357.109 19 416.353 86.3891 416.353 172.966C416.353 220.892 398.908 253.213 380.207 273.584C373.858 280.5 368.803 284.779 363.597 288.733L436.991 444.509C447.617 467.06 431.164 493 406.234 493H307.242C293.987 493 283.242 482.255 283.242 469C283.242 455.745 293.987 445 307.242 445H384.162L300.068 266.513L323.706 257.214L323.709 257.213C323.843 257.154 324.167 257.008 324.655 256.768C325.634 256.285 327.251 255.433 329.296 254.154C333.406 251.584 339.102 247.382 344.847 241.124C355.973 229.004 368.353 208.074 368.353 172.966C368.353 104.306 322.754 67 292.932 67H162.692Z" fill="#F31186"/>
</svg>
